X: 052
T: Lord Elcho's Reel
C: Abraham Mackintosh
R: reel
M: C|
L: 1/8
Z: 2010 John Chambers <jc:trillian.mit.edu>
B: Abraham Mackintosh "A Collection of Strathspeys, Reels, Jigs &c.", Newcastle, after 1797, p.5
F: http://imslp.info/files/imglnks/usimg/a/a8/IMSLP80796-PMLP164326-Abraham_Mackintosh_coll.pdf
K: C
V: 1
e | c2cG ECCE | Dddc Bcdf | ecdB cagf | e/f/g df ecc :|
g | e/f/g cg egag | fedc Bcdf | egcg ecge | f/g/a gf ecc ||
g | e/f/g cg egag | fedc Bcdf | ecAc GcEc | A/B/c GF Ecc |]
V: 2 clef=bass middle=d
z | c2e2 c2c2 | g2^f2 g2b2 | c'2g2 a2b2 | c'2g2 c2c :|
z | c2e2 c2c2 | d2f2 g2b2 | c'2c2 c2e2 | d2g2 c'2c2 ||
    c2e2 c2c2 | d2f2 g2b2 | c'2f2 e2c2 | f2g2 c'2c  |]

%%sep 2 1 500

